korla/apps/scalable/workspace-switcher.svg

<!DOCTYPE svg  PUBLIC '-//W3C//DTD SVG 1.1//EN'  'http://www.w3.org/Graphics/SVG/1.1/DTD/svg11.dtd'>
<svg style="clip-rule:evenodd;fill-rule:evenodd;stroke-linejoin:round;stroke-miterlimit:1.41421" version="1.1" viewBox="0 0 48 48" xmlns="http://www.w3.org/2000/svg">
 <path d="m46 9.479c0-0.419-0.166-0.821-0.463-1.117-0.296-0.296-0.697-0.463-1.116-0.463h-40.842c-0.419 0-0.82 0.167-1.116 0.463-0.297 0.296-0.463 0.698-0.463 1.117v30.042c0 0.419 0.166 0.821 0.463 1.117 0.296 0.296 0.697 0.463 1.116 0.463h40.842c0.419 0 0.82-0.167 1.116-0.463 0.297-0.296 0.463-0.698 0.463-1.117v-30.042z" style="fill-opacity:.666667"/>
 <path d="m46 9.086c0-0.58-0.23-1.136-0.64-1.546s-0.967-0.641-1.547-0.641h-39.626c-0.58 0-1.137 0.231-1.547 0.641s-0.64 0.966-0.64 1.546v28.828c0 0.58 0.23 1.136 0.64 1.546s0.967 0.641 1.547 0.641h39.626c0.58 0 1.137-0.231 1.547-0.641s0.64-0.966 0.64-1.546v-28.828z" style="fill:url(#_Linear1)"/>
 <path d="m34.83 15.132c-0.179-0.179-0.391-0.269-0.635-0.269h-19.869c-0.244 0-0.456 0.089-0.635 0.269-0.179 0.178-0.268 0.39-0.268 0.635v19.868c0 0.245 0.089 0.457 0.268 0.636 0.179 0.178 0.391 0.268 0.635 0.268h19.869c0.244 0 0.456-0.09 0.635-0.268 0.179-0.179 0.268-0.391 0.268-0.636v-19.868c0-0.245-0.089-0.457-0.268-0.635zm-11.472 16.891c0 0.131-0.044 0.24-0.127 0.325-0.085 0.084-0.193 0.127-0.325 0.127h-6.773c-0.132 0-0.24-0.044-0.325-0.127-0.085-0.085-0.127-0.193-0.127-0.325v-14.45c0-0.132 0.043-0.241 0.127-0.325 0.085-0.085 0.192-0.128 0.325-0.128h6.773c0.132 0 0.24 0.044 0.325 0.128s0.127 0.192 0.127 0.325v14.45zm9.482-5.419c0 0.132-0.043 0.24-0.127 0.325-0.085 0.084-0.192 0.127-0.324 0.127h-6.773c-0.133 0-0.24-0.043-0.325-0.127-0.085-0.085-0.127-0.193-0.127-0.325v-9.031c0-0.132 0.044-0.241 0.127-0.325 0.085-0.085 0.192-0.128 0.325-0.128h6.773c0.132 0 0.24 0.044 0.324 0.128 0.085 0.084 0.127 0.192 0.127 0.325v9.031z" style="fill-opacity:.843137;fill-rule:nonzero;fill:white"/>
 <defs>
  <linearGradient id="_Linear1" x2="1" gradientTransform="matrix(2.09279e-15,-34.1778,34.1778,2.09279e-15,24.9999,41.077)" gradientUnits="userSpaceOnUse">
   <stop style="stop-color:rgb(86,96,105)" offset="0"/>
   <stop style="stop-color:rgb(108,120,132)" offset="1"/>
  </linearGradient>
 </defs>
</svg>

<?xml version="1.0" encoding="UTF-8" standalone="no"?>
<!DOCTYPE svg PUBLIC "-//W3C//DTD SVG 1.1//EN" "http://www.w3.org/Graphics/SVG/1.1/DTD/svg11.dtd">
<svg width="100%" height="100%" viewBox="0 0 48 48" version="1.1" xmlns="http://www.w3.org/2000/svg" xmlns:xlink="http://www.w3.org/1999/xlink" xml:space="preserve" xmlns:serif="http://www.serif.com/" style="fill-rule:evenodd;clip-rule:evenodd;stroke-linejoin:round;stroke-miterlimit:1.41421;">
    <path id="rect7" d="M46,9.479C46,9.06 45.834,8.658 45.537,8.362C45.241,8.066 44.84,7.899 44.421,7.899C37.566,7.899 10.434,7.899 3.579,7.899C3.16,7.899 2.759,8.066 2.463,8.362C2.166,8.658 2,9.06 2,9.479C2,15.075 2,33.925 2,39.521C2,39.94 2.166,40.342 2.463,40.638C2.759,40.934 3.16,41.101 3.579,41.101C10.434,41.101 37.566,41.101 44.421,41.101C44.84,41.101 45.241,40.934 45.537,40.638C45.834,40.342 46,39.94 46,39.521C46,33.925 46,15.075 46,9.479Z" style="fill-opacity:0.666667;"/>
    <path id="rect9" d="M46,9.086C46,8.506 45.77,7.95 45.36,7.54C44.95,7.13 44.393,6.899 43.813,6.899C36.314,6.899 11.686,6.899 4.187,6.899C3.607,6.899 3.05,7.13 2.64,7.54C2.23,7.95 2,8.506 2,9.086C2,15.109 2,31.891 2,37.914C2,38.494 2.23,39.05 2.64,39.46C3.05,39.87 3.607,40.101 4.187,40.101C11.686,40.101 36.314,40.101 43.813,40.101C44.393,40.101 44.95,39.87 45.36,39.46C45.77,39.05 46,38.494 46,37.914C46,31.891 46,15.109 46,9.086Z" style="fill:url(#_Linear1);"/>
    <path id="path11" d="M34.83,15.132C34.651,14.953 34.439,14.863 34.195,14.863L14.326,14.863C14.082,14.863 13.87,14.952 13.691,15.132C13.512,15.31 13.423,15.522 13.423,15.767L13.423,35.635C13.423,35.88 13.512,36.092 13.691,36.271C13.87,36.449 14.082,36.539 14.326,36.539L34.195,36.539C34.439,36.539 34.651,36.449 34.83,36.271C35.009,36.092 35.098,35.88 35.098,35.635L35.098,15.767C35.098,15.522 35.009,15.31 34.83,15.132ZM23.358,32.023C23.358,32.154 23.314,32.263 23.231,32.348C23.146,32.432 23.038,32.475 22.906,32.475L16.133,32.475C16.001,32.475 15.893,32.431 15.808,32.348C15.723,32.263 15.681,32.155 15.681,32.023L15.681,17.573C15.681,17.441 15.724,17.332 15.808,17.248C15.893,17.163 16,17.12 16.133,17.12L22.906,17.12C23.038,17.12 23.146,17.164 23.231,17.248C23.316,17.332 23.358,17.44 23.358,17.573L23.358,32.023ZM32.84,26.604C32.84,26.736 32.797,26.844 32.713,26.929C32.628,27.013 32.521,27.056 32.389,27.056L25.616,27.056C25.483,27.056 25.376,27.013 25.291,26.929C25.206,26.844 25.164,26.736 25.164,26.604L25.164,17.573C25.164,17.441 25.208,17.332 25.291,17.248C25.376,17.163 25.483,17.12 25.616,17.12L32.389,17.12C32.521,17.12 32.629,17.164 32.713,17.248C32.798,17.332 32.84,17.44 32.84,17.573L32.84,26.604Z" style="fill:white;fill-opacity:0.843137;fill-rule:nonzero;"/>
    <defs>
        <linearGradient id="_Linear1" x1="0" y1="0" x2="1" y2="0" gradientUnits="userSpaceOnUse" gradientTransform="matrix(2.09279e-15,-34.1778,34.1778,2.09279e-15,24.9999,41.077)"><stop offset="0" style="stop-color:rgb(86,96,105);stop-opacity:1"/><stop offset="1" style="stop-color:rgb(108,120,132);stop-opacity:1"/></linearGradient>
    </defs>
</svg>
